X:1
T:Title
%%score { 1 | ( 2 3 ) }
L:1/8
M:4/4
K:C
V:1 treble nm="Grand Piano"
V:2 bass 
V:3 bass 
V:1
 z4 z2[Q:1/4=100] EE | EEE[DF] [EG]2 [EG][EG] | [EG]2 [_E^F][EA] [=EG]2 [EG][EG] | %3
 [EG][DF][DF][^CE] [DF]2 [B,D][B,D] | [B,D]E[B,DF][B,FA] [CEG]2 EE | EEE[DF] [EG]2 [EG][EG] | %6
 [EG]2 [_E^F][EA] [=EG]2 [EG][EG] | [EG][Ge][Gd][Gc] [GB]AFA |[M:7/8] G2 c B [Ec]3 |[M:1/4] EE | %10
[M:4/4] E2 [DF]2 [EG]2 [EG][EG] |[M:7/8] A2 c A [CEG]3 |[M:1/4] [G,CE][G,DF] | %13
[M:4/4] [EG][Ge][Gd][Gc] [GB]AFA |[M:7/8] Gcc B [Ec]3 |] %15
V:2
 z4 z2 [C,G,C][C,G,C] | [C,G,C][C,G,C][C,G,C][C,G,] [C,C]2 [C,C][C,C] | %2
 [C,C]2 [C,A,][C,^F,] [C,G,]2 [C,G,][C,G,] | [G,,G,][G,,G,][G,,G,][G,,G,] [G,,G,]2 [G,,G,][G,,G,] | %4
 z CG,,G,, C,2 [C,G,C][C,G,C] | [C,G,C][C,G,C][C,G,C][C,G,] [C,C]2 [C,C][C,C] | %6
 [C,C]2 [C,A,][C,^F,] [C,G,]2 [C,C][C,C] | %7
 [C,C][C,G,][E,C][E,C] [F,C][F,CF][F,A,C][K:treble][F,CF] | %8
[M:7/8] [G,CE]2 [G,DF] [G,F][K:bass] [C,G,]3 |[M:1/4] [C,G,C][C,G,C] | %10
[M:4/4] [C,G,C]2 [C,G,]2 [C,C]2 [C,C][C,C] |[M:7/8] [F,CF]2 [F,F]- [F,CF] C,3 |[M:1/4] C,C, | %13
[M:4/4] [C,C][C,C][E,C][E,C] [F,C][F,CF][F,A,C][F,CF] | %14
[M:7/8] CG,[K:treble][G,DF] [G,F][K:bass] [C,G,]3 |] %15
V:3
 x8 | x8 | x8 | x8 | [G,,G,]2 z2 z4 | x8 | x8 | x7[K:treble] x |[M:7/8] x4[K:bass] x3 |[M:1/4] x2 | %10
[M:4/4] x8 |[M:7/8] z2 A, z z z2 |[M:1/4] x2 |[M:4/4] x8 | %14
[M:7/8] [E,E]2[K:treble] z z[K:bass] z z2 |] %15

